!!!OTL: Shiliting
!!!ARE: Asia, China,ˇNingxia, Yinchuan
!! I, 198
!!!SCT: C1431
!!!YEM: Copyright 1995, estate of Helmut Schaffrath.
**kern
*ICvox
*Ivox
*M2/4
*k[f#]
*G:
{8dd
8a
4dd
=1
8dd
4cc#
8dd
=2
8a
8g
8f#
8e
=3
2d}
=4
{8a
8g
4a
=5
4c#
4d
=6
8g
8e
8d
8B
=7
2A}
=8
{8d
8d
4g
=9
8a
4a
8dd
=10
8a
8g
8f#
8e
=11
2d}
=12
{8dd
8a
4dd
=13
8.dd
16gg
8cc#
8a
=14
4.g
8a
=15
8e
8d
8c
8B
=16
2A}
==
!!!AGN: Xiaodiao. NannÅ liqing
!!!ONB: ESAC (Essen Associative Code) Database: HUANG
!!!AMT: simple duple
!!!AIN: vox
!!!EED: Helmut Schaffrath
!!!EEV: 1.0
*-
